X:307
T:Sweeney's buttermilk
T:McGlinchey's
T:Charlie's Buttermilk Mary
R:Reel
O:Ireland
C:Brendan McGlinchey
D:Brian Mulvahill/Donna Long- The Morning Dew track 2
D:Chieftains...?
S:??
Z:Transcription, chords:Mike Long
M:C|
L:1/8
K:A
"Bm"FB~B2 FB~B2|"G"dcBA "A"BE~E2|"Bm"FB~B2 "A"ABce|\
"F#m"afec Baga|"Bm"f2ec fcec|"A"(B{c}B{A}B)c BAFE|
"Bm"FB~B2 "A"ABce|"F#m"afec "Bm"B2B2:|\
|:"Bm"FBdc BF~F2|\
"A"EAcB AE~E2|"Bm"FBdc (3(Bcd) fb|
"A"afec "G"d2cd|"Bm"Bcde fB~B2|"A"afec ABce|\
"Bm"(f{g}f{e}f)a "A"bf ~f2|"F#m"afec "Bm"B2B2:|
